!!!OTL: 548. Burschenschaftslied.
!!!ODT: 1815 (vor)
!!!ARE: Europa, Mitteleuropa, Deutschland
!!!SCT: B0548
!!!YEM: Copyright 1995, estate of Helmut Schaffrath.
**kern	**text
*ICvox	*
*Ivox	*
*clefG2	*
*M4/4	*
*met(c)	*
*k[]	*
*C:	*
!LO:TX:a:t=Kräftig und bewegt.	!
{8g	Wo
8.ee	Muth
16cc	und
=1	=1
4.g	Kraft
8g	in
8.g	deut-
16g	-ſcher
8.a	See-
16g	-le
=2	=2
8.gL	flam-
16fJ	.
4f	-men,
8.r}	.
{16f	fehlt
8.g	nie
16f	das
=3	=3
4.e	blan-
8g	-ke
8.a	Schwert
16a	beim
8.dd	Be-
16cc	-cher-
=4	=4
(4cc	-klang
4b)	.
8.r}	.
{16g	wir
8.ee	ſte-
16cc	-hen
=5	=5
4.g	feſt
8g	und
8.g	hal-
16g	-ten
8.a	treu
16g	ʒu-
=6	=6
8.f#L	-ſam-
16aJ	.
4dd	-men,
8.r}	.
{16dd	und
8.dd	ru-
16cc	-fen's
=7	=7
(4bSs	laut
8.cc)	.
16a	im
8.g	ſeu-
16g	-rie-
8.b	-gen
16a	Ge-
=8	=8
2g	-ſang
4r}	.
{4g	Ob
=9	=9
4.dd	Fels
8b	und
8.ccL	Ei-
16b	.
8ccJ	.
8ee	-che
=10	=10
4dd^	ſplittern,
4g	.
4r}	.
{4g	wir
=11	=11
4.ee	wer-
8dd	-den
4.cc	nicht
8ee	er-
=12	=12
4dd^	-ʒit-
4g	-tern!
8r}	.
!LO:TX:a:t=P:only higher voice encoded:problem	!
{8g	Den
8.a	Jüng-
16b/	-ling
=13	=13
4.cc/	reißt
8dd/	es
8.ee/	fort
16dd/	mit
8.cc/	Stur-
16b/	-mes-
=14	=14
(4a	-wehn,
4ff)	.
8r}	.
{8ff/	für's
8.ee/	Va-
16dd/	-ter-
=15	=15
4.cc/	-land
8cc/	in
8.dd/	Kampf
16cc/	und
8.dd/	Tod
16ee/	ʒu
=16	=16
2cc/	gehn.
8r}	.
{8g	Den
8.a	Jüng-
16b/	-ling
=17	=17
4.cc/	reißt
8dd/	es
8.ee/	fort
16dd/	mit
8.cc/	Stur-
16b/	-mes-
=18	=18
(4a	-wehn,
4ff)	.
8r}	.
{8ff/	für's
8.ee/	Va-
16dd/	-ter-
=19	=19
4.cc/	-land
8cc/	in
8.dd/	Kampf
16cc/	und
8.dd/	Tod
16ee/	ʒu
=20	=20
2cc/	gehn.
8r}	.
==	==
!!!AGN: Studenten -, Burschenschafts - Lied, national
!!!GTL: Studentenlieder
!!!ONB: ESAC (Essen Associative Code) Database: BOEHME
!!!AMT: simple quadruple
!!!AIN: vox
!!!EED: Helmut Schaffrath
!!!EEV: 1.0
!!Franʒ. Mel. vor. 1815.
!!@@COMMENT:"Text gedichtet im Juli 1815 von Carl Hinkel, Burſch in Leipʒig. Geſungen wurde das
!!Lied ʒuerſt von Leipʒiger Studenten bei Gelegenbeit eines Ʒugs nach Dresden ʒur Begrüßung des
!!aus der Gefangenſchaft ʒurückkehrenden Sachſenkönigs. (ſ. Lieder ʒur 50jähr. Jubiläumsfeier des
!!Corps Saronia ʒu Leipʒig 1862. S. 31. ) [...]Die Melodie ʒu Hinkel's Texte fand M. Friedländer ʒuerſt
!!in "Auswahl von Commers- und Geſellſchaftslieder". Halle 1816. Die Mel. der franʒ. Romanʒe
!!vom Troubadour: "Brülant d'amour et partant pour la guerre. " Als Komponiſt iſt Souvent
!!genannt. Die getreue Ueberſetʒung des franʒ. Liedes ſ. unter "auswärtige Weiſen". - Die 4 letʒten
!!Takte der Melodie ʒu den Worten "Ob Fels und Eiche" findet man oft ganʒ entſtellt."
!!@@END:
!!!Text: C. Hinkel
!!!URL-scan: https://archive.org/details/BoehmeVtLieder1895/page/n437/mode/2up
!!!ENC: Anna Maria Matuszewska
!!!EEV: 2024/11/07
*-	*-
